icons/lines/teacher.svg

<svg xmlns="http://www.w3.org/2000/svg" width="24" height="24" viewBox="0 0 24 24" fill="none" stroke="currentColor" stroke-width="2" stroke-linecap="round" stroke-linejoin="round" >
  <path d="M10.05 2.52997L4.03002 6.45997C2.10002 7.71997 2.10002 10.54 4.03002 11.8L10.05 15.73C11.13 16.44 12.91 16.44 13.99 15.73L19.98 11.8C21.9 10.54 21.9 7.72997 19.98 6.46997L13.99 2.53997C12.91 1.81997 11.13 1.81997 10.05 2.52997Z"/>
  <path d="M5.63012 13.08L5.62012 17.77C5.62012 19.04 6.60012 20.4 7.80012 20.8L10.9901 21.86C11.5401 22.04 12.4501 22.04 13.0101 21.86L16.2001 20.8C17.4001 20.4 18.3801 19.04 18.3801 17.77V13.13"/>
  <path d="M21.3999 15V9"/>
  </svg>

<svg xmlns="http://www.w3.org/2000/svg" width="24" height="24" viewBox="0 0 24 24" fill="none" stroke="currentColor" stroke-width="2" stroke-linecap="round" stroke-linejoin="round">
  <path d="M21.4 15V9" />
  <path d="M4.03 6.46c-1.93 1.26-1.93 4.08 0 5.34l6.02 3.93c1.08.71 2.86.71 3.94 0l5.99-3.93c1.92-1.26 1.92-4.07 0-5.33l-5.99-3.93c-1.08-.72-2.86-.72-3.94-.01z" />
  <path d="m5.63 13.08-.01 4.69c0 1.27.98 2.63 2.18 3.03l3.19 1.06c.55.18 1.46.18 2.02 0l3.19-1.06c1.2-.4 2.18-1.76 2.18-3.03v-4.64" />
</svg>
